X: 03041
T: JACOBS' JIG
C: Bob McQuillen 31 Aug 76
B: Bob's Note Book 03 #41
R: jig
%D:1976
Z: 2020 John Chambers <jc:trillian.mit.edu>
M: 6/8
L: 1/8
K: D
FG \
| A2d dAF | A2d dFG | Ade fed | afd e2A |\
| Add dAF | Add dFG | Adf afd | edc d  :|
|: fg \
| afa dfa | bgb afd | afa dfe | def e2A |\
| afa dfa | bgb afd | Bcd Adf | e2-e d :|
%%begintext align
%% For Carl Jacobs of Keene, N.H.,
%% one of the best Bass players in
%% the business.
%%endtext
